static/img/in-field/lists-pressed-dark.svg

<svg fill="none" height="57" viewBox="0 0 510 57" width="510" xmlns="http://www.w3.org/2000/svg" xmlns:xlink="http://www.w3.org/1999/xlink"><mask id="a" fill="#fff"><path d="m0 .800049h510v55.999951h-510z" fill="#fff"/></mask><path d="m0 .800049h510v55.999951h-510z" fill="#019aeb"/><path d="m18.1484 37.8v-15.705h1.8262v14.0722h6.9717v1.6328zm13.2588-11.7734v11.7734h-1.7832v-11.7734zm-.8701-4.4043c.2936 0 .5443.0967.752.2901.2148.1862.3222.4798.3222.8808 0 .3939-.1074.6875-.3222.8809-.2077.1933-.4584.29-.752.29-.3079 0-.5657-.0967-.7734-.29-.2005-.1934-.3008-.487-.3008-.8809 0-.401.1003-.6946.3008-.8808.2077-.1934.4655-.2901.7734-.2901zm12.5176 12.9551c0 .7519-.1898 1.3857-.5693 1.9014-.3724.5084-.9096.8916-1.6114 1.1494-.6946.2578-1.5254.3867-2.4922.3867-.8235 0-1.5361-.0645-2.1377-.1934-.6015-.1289-1.1279-.3115-1.5791-.5478v-1.6436c.4799.2364 1.0528.4512 1.7188.6446.666.1933 1.3463.29 2.041.29 1.0169 0 1.7546-.1647 2.2129-.4941.4583-.3295.6875-.7771.6875-1.3428 0-.3223-.0931-.6052-.2793-.8486-.179-.2507-.4834-.4906-.9131-.7198-.4297-.2363-1.0241-.4941-1.7832-.7734-.7519-.2865-1.4036-.5693-1.9551-.8486-.5442-.2865-.9668-.6338-1.2675-1.042-.2937-.4082-.4405-.9382-.4405-1.5899 0-.9954.4011-1.7581 1.2031-2.2881.8093-.5371 1.8692-.8056 3.1797-.8056.709 0 1.3715.0716 1.9873.2148.6231.1361 1.2032.3223 1.7403.5586l-.6016 1.4287c-.487-.2077-1.0062-.3831-1.5576-.5264-.5514-.1432-1.1136-.2148-1.6865-.2148-.8236 0-1.4574.1361-1.9014.4082-.4368.2721-.6553.6445-.6553 1.1172 0 .3652.1003.666.3008.9023.2077.2364.5371.4584.9883.6661.4512.2076 1.0456.4511 1.7832.7304.7376.2722 1.375.555 1.9121.8487.5371.2864.9489.6373 1.2354 1.0527.2936.4082.4404.9346.4404 1.5791zm6.9209 1.9766c.2936 0 .5944-.0251.9023-.0752.308-.0502.5586-.111.752-.1827v1.3858c-.2077.0931-.4977.1719-.8701.2363-.3653.0645-.7233.0967-1.0743.0967-.623 0-1.1888-.1074-1.6972-.3223-.5085-.222-.9167-.5944-1.2246-1.1172-.3008-.5227-.4512-1.2461-.4512-2.1699v-6.9824h-1.6758v-.8701l1.6865-.6983.709-2.5566h1.0742v2.7285h3.4483v1.3965h-3.4483v6.9287c0 .7376.1683 1.2891.5049 1.6543.3438.3652.7985.5479 1.3643.5479zm10.5224 1.246v-15.705h1.8262v15.705zm9.9288-1.246c.2936 0 .5944-.0251.9023-.0752.3079-.0502.5586-.111.752-.1827v1.3858c-.2077.0931-.4978.1719-.8702.2363-.3652.0645-.7233.0967-1.0742.0967-.623 0-1.1888-.1074-1.6972-.3223-.5085-.222-.9167-.5944-1.2247-1.1172-.3007-.5227-.4511-1.2461-.4511-2.1699v-6.9824h-1.6758v-.8701l1.6865-.6983.709-2.5566h1.0742v2.7285h3.4483v1.3965h-3.4483v6.9287c0 .7376.1683 1.2891.5049 1.6543.3437.3652.7985.5479 1.3643.5479zm8.8222-10.7422c1.0026 0 1.862.222 2.5781.666.7162.444 1.264 1.067 1.6436 1.8691.3796.7949.5693 1.7259.5693 2.793v1.1064h-8.1318c.0215 1.3822.3652 2.4349 1.0313 3.1582.666.7233 1.6041 1.085 2.8144 1.085.7448 0 1.4037-.068 1.9766-.2041s1.1673-.3366 1.7832-.6016v1.5684c-.5944.265-1.1852.4583-1.7725.5801-.5801.1217-1.2676.1826-2.0625.1826-1.1315 0-2.1198-.2292-2.9648-.6875-.8379-.4655-1.4896-1.1458-1.9551-2.041s-.6983-1.9909-.6983-3.2871c0-1.2676.2113-2.3633.6338-3.2871.4297-.931 1.0313-1.6472 1.8047-2.1485.7806-.5013 1.6973-.7519 2.75-.7519zm-.0215 1.4609c-.9524 0-1.7115.3115-2.2773.9346-.5658.623-.9023 1.4931-1.0098 2.6103h6.2305c-.0072-.7018-.1182-1.3177-.333-1.8476-.2077-.5371-.5264-.9525-.9561-1.2461-.4297-.3008-.9811-.4512-1.6543-.4512zm20.8755-1.4609c1.296 0 2.273.3401 2.932 1.0205.659.6732.988 1.7581.988 3.2549v7.7128h-1.761v-7.6269c0-.9525-.208-1.665-.623-2.1377-.409-.4798-1.017-.7197-1.8265-.7197-1.1387 0-1.9658.3294-2.4814.9883-.5157.6588-.7735 1.6292-.7735 2.9111v6.5849h-1.7724v-7.6269c0-.6374-.0931-1.1673-.2793-1.5898-.1791-.4226-.4512-.7377-.8164-.9454-.3581-.2148-.8129-.3222-1.3643-.3222-.7806 0-1.4072.1611-1.8799.4834-.4726.3222-.8164.8021-1.0312 1.4394-.2077.6302-.3116 1.4073-.3116 2.3311v6.2304h-1.7832v-11.7734h1.4395l.2685 1.6651h.0967c.2364-.4083.5336-.752.8916-1.0313.3581-.2793.7591-.4906 1.2032-.6338.444-.1432.9166-.2148 1.4179-.2148.8952 0 1.6436.1683 2.2451.5049.6088.3294 1.0492.8343 1.3213 1.5146h.0967c.3867-.6803.9167-1.1852 1.5898-1.5146.6732-.3366 1.4109-.5049 2.2134-.5049z" fill="#fff"/><path d="m510 55.8h-510v2h510z" fill="#a3a6b1" mask="url(#a)"/></svg>

<svg width="510" height="57" viewBox="0 0 510 57" fill="none" xmlns="http://www.w3.org/2000/svg"><mask id="path-1-inside-1_7345_83156" fill="#fff"><path d="M0 0.800049H510V56.8H0V0.800049Z"/></mask><path d="M0 0.800049H510V56.8H0V0.800049Z" fill="#019AEB"/><path d="M18.1484 37.8V22.095H19.9746V36.1672H26.9463V37.8H18.1484ZM31.4072 26.0266V37.8H29.624V26.0266H31.4072ZM30.5371 21.6223C30.8307 21.6223 31.0814 21.719 31.2891 21.9124C31.5039 22.0986 31.6113 22.3922 31.6113 22.7932C31.6113 23.1871 31.5039 23.4807 31.2891 23.6741C31.0814 23.8674 30.8307 23.9641 30.5371 23.9641C30.2292 23.9641 29.9714 23.8674 29.7637 23.6741C29.5632 23.4807 29.4629 23.1871 29.4629 22.7932C29.4629 22.3922 29.5632 22.0986 29.7637 21.9124C29.9714 21.719 30.2292 21.6223 30.5371 21.6223ZM43.0547 34.5774C43.0547 35.3293 42.8649 35.9631 42.4854 36.4788C42.113 36.9872 41.5758 37.3704 40.874 37.6282C40.1794 37.886 39.3486 38.0149 38.3818 38.0149C37.5583 38.0149 36.8457 37.9504 36.2441 37.8215C35.6426 37.6926 35.1162 37.51 34.665 37.2737V35.6301C35.1449 35.8665 35.7178 36.0813 36.3838 36.2747C37.0498 36.468 37.7301 36.5647 38.4248 36.5647C39.4417 36.5647 40.1794 36.4 40.6377 36.0706C41.096 35.7411 41.3252 35.2935 41.3252 34.7278C41.3252 34.4055 41.2321 34.1226 41.0459 33.8792C40.8669 33.6285 40.5625 33.3886 40.1328 33.1594C39.7031 32.9231 39.1087 32.6653 38.3496 32.386C37.5977 32.0995 36.946 31.8167 36.3945 31.5374C35.8503 31.2509 35.4277 30.9036 35.127 30.4954C34.8333 30.0872 34.6865 29.5572 34.6865 28.9055C34.6865 27.9101 35.0876 27.1474 35.8896 26.6174C36.6989 26.0803 37.7588 25.8118 39.0693 25.8118C39.7783 25.8118 40.4408 25.8834 41.0566 26.0266C41.6797 26.1627 42.2598 26.3489 42.7969 26.5852L42.1953 28.0139C41.7083 27.8062 41.1891 27.6308 40.6377 27.4875C40.0863 27.3443 39.5241 27.2727 38.9512 27.2727C38.1276 27.2727 37.4938 27.4088 37.0498 27.6809C36.613 27.953 36.3945 28.3254 36.3945 28.7981C36.3945 29.1633 36.4948 29.4641 36.6953 29.7004C36.903 29.9368 37.2324 30.1588 37.6836 30.3665C38.1348 30.5741 38.7292 30.8176 39.4668 31.0969C40.2044 31.3691 40.8418 31.6519 41.3789 31.9456C41.916 32.232 42.3278 32.5829 42.6143 32.9983C42.9079 33.4065 43.0547 33.9329 43.0547 34.5774ZM49.9756 36.554C50.2692 36.554 50.57 36.5289 50.8779 36.4788C51.1859 36.4286 51.4365 36.3678 51.6299 36.2961V37.6819C51.4222 37.775 51.1322 37.8538 50.7598 37.9182C50.3945 37.9827 50.0365 38.0149 49.6855 38.0149C49.0625 38.0149 48.4967 37.9075 47.9883 37.6926C47.4798 37.4706 47.0716 37.0982 46.7637 36.5754C46.4629 36.0527 46.3125 35.3293 46.3125 34.4055V27.4231H44.6367V26.553L46.3232 25.8547L47.0322 23.2981H48.1064V26.0266H51.5547V27.4231H48.1064V34.3518C48.1064 35.0894 48.2747 35.6409 48.6113 36.0061C48.9551 36.3713 49.4098 36.554 49.9756 36.554ZM60.498 37.8V22.095H62.3242V37.8H60.498ZM70.4268 36.554C70.7204 36.554 71.0212 36.5289 71.3291 36.4788C71.637 36.4286 71.8877 36.3678 72.0811 36.2961V37.6819C71.8734 37.775 71.5833 37.8538 71.2109 37.9182C70.8457 37.9827 70.4876 38.0149 70.1367 38.0149C69.5137 38.0149 68.9479 37.9075 68.4395 37.6926C67.931 37.4706 67.5228 37.0982 67.2148 36.5754C66.9141 36.0527 66.7637 35.3293 66.7637 34.4055V27.4231H65.0879V26.553L66.7744 25.8547L67.4834 23.2981H68.5576V26.0266H72.0059V27.4231H68.5576V34.3518C68.5576 35.0894 68.7259 35.6409 69.0625 36.0061C69.4062 36.3713 69.861 36.554 70.4268 36.554ZM79.249 25.8118C80.2516 25.8118 81.111 26.0338 81.8271 26.4778C82.5433 26.9218 83.0911 27.5448 83.4707 28.3469C83.8503 29.1418 84.04 30.0728 84.04 31.1399V32.2463H75.9082C75.9297 33.6285 76.2734 34.6812 76.9395 35.4045C77.6055 36.1278 78.5436 36.4895 79.7539 36.4895C80.4987 36.4895 81.1576 36.4215 81.7305 36.2854C82.3034 36.1493 82.8978 35.9488 83.5137 35.6838V37.2522C82.9193 37.5172 82.3285 37.7105 81.7412 37.8323C81.1611 37.954 80.4736 38.0149 79.6787 38.0149C78.5472 38.0149 77.5589 37.7857 76.7139 37.3274C75.876 36.8619 75.2243 36.1816 74.7588 35.2864C74.2933 34.3912 74.0605 33.2955 74.0605 31.9993C74.0605 30.7317 74.2718 29.636 74.6943 28.7122C75.124 27.7812 75.7256 27.065 76.499 26.5637C77.2796 26.0624 78.1963 25.8118 79.249 25.8118ZM79.2275 27.2727C78.2751 27.2727 77.516 27.5842 76.9502 28.2073C76.3844 28.8303 76.0479 29.7004 75.9404 30.8176H82.1709C82.1637 30.1158 82.0527 29.4999 81.8379 28.97C81.6302 28.4329 81.3115 28.0175 80.8818 27.7239C80.4521 27.4231 79.9007 27.2727 79.2275 27.2727ZM100.103 25.8118C101.399 25.8118 102.376 26.1519 103.035 26.8323C103.694 27.5055 104.023 28.5904 104.023 30.0872V37.8H102.262V30.1731C102.262 29.2206 102.054 28.5081 101.639 28.0354C101.23 27.5556 100.622 27.3157 99.8125 27.3157C98.6738 27.3157 97.8467 27.6451 97.3311 28.304C96.8154 28.9628 96.5576 29.9332 96.5576 31.2151V37.8H94.7852V30.1731C94.7852 29.5357 94.6921 29.0058 94.5059 28.5833C94.3268 28.1607 94.0547 27.8456 93.6895 27.6379C93.3314 27.4231 92.8766 27.3157 92.3252 27.3157C91.5446 27.3157 90.918 27.4768 90.4453 27.7991C89.9727 28.1213 89.6289 28.6012 89.4141 29.2385C89.2064 29.8687 89.1025 30.6458 89.1025 31.5696V37.8H87.3193V26.0266H88.7588L89.0273 27.6917H89.124C89.3604 27.2834 89.6576 26.9397 90.0156 26.6604C90.3737 26.3811 90.7747 26.1698 91.2188 26.0266C91.6628 25.8834 92.1354 25.8118 92.6367 25.8118C93.5319 25.8118 94.2803 25.9801 94.8818 26.3167C95.4906 26.6461 95.931 27.151 96.2031 27.8313H96.2998C96.6865 27.151 97.2165 26.6461 97.8896 26.3167C98.5628 25.9801 99.3005 25.8118 100.103 25.8118Z" fill="#fff"/><path d="M510 55.8H0V57.8H510V55.8Z" fill="#A3A6B1" mask="url(#path-1-inside-1_7345_83156)"/></svg>
